svg/surround_sound_5_1_2.svg

<svg xmlns="http://www.w3.org/2000/svg" viewBox="0 0 24 24"><path d="M18 7v2h4v2h-2c-1.1 0-2 .9-2 2v4h6v-2h-4v-2h2c1.1 0 2-.9 2-2V9c0-1.1-.9-2-2-2zM9 17H7v-2h2zM9 7v2h2v8h2V7zM0 7v6h4v2H0v2h4c1.1 0 2-.9 2-2v-2c0-1.1-.9-2-2-2H2V9h4V7zm17 10h-2v-2h2z"/></svg>

<svg xmlns="http://www.w3.org/2000/svg" id="mdi-surround-sound-5-1-2" viewBox="0 0 24 24"><path d="M18 7V9H22V11H20C18.9 11 18 11.9 18 13V17H24V15H20V13H22C23.1 13 24 12.1 24 11V9C24 7.9 23.1 7 22 7H18M9 17H7V15H9V17M9 7V9H11V17H13V7H9M0 7V13H4V15H0V17H4C5.1 17 6 16.1 6 15V13C6 11.9 5.1 11 4 11H2V9H6V7H0M17 17H15V15H17V17" /></svg>
